X: 270
T:Collar-Green, a Reel
B:William Marshall's Scottish Airs, Melodies, Strathspeys, Reels &c (1822)
C:William Marshall
L:1/8
M:C
O:Scotland
R:Reel
Z:Clark Bernst + Richard Robinson
%%Page:42 - 3
F:http://richardrobinson.tunebook.org.uk/tune/4113
%%TBL:{"version":1,"type":"tune","id":"4113"}
K:G
%%staves {1 2}
V:1
c | \
BG B/c/d ~B2 GA | =FcAc fcfa | gd g/a/b g2 dc | Bdef gdgb :|
(Bc/d/) (Gd) BdGd | A=FAc fcfa | (B/c/d) (Ge) BdGd | Bdef gdgb |
(Bc/d/) (Gd) BdGd | A=FAc fcfa | (ba/g/) (a/g/f) ~g2 (dc) | Bdef gdgb |]
V:2 middle=d clef=bass
L:1/4
z/ | [Gg]GGG | [F=f]fff | [Gg]ggb | d'c'bg :| \
gggg | =ffff | gggg | d'c'bg | gggg | =ffff | gd'bg | d'c'bg |]

